assets/img/planning-feature-icon.svg

<svg width="24" height="24" viewBox="0 0 24 24" fill="none" xmlns="http://www.w3.org/2000/svg">
<path d="M12 16.6665C12 13.354 14.6875 10.6665 18 10.6665C21.3125 10.6665 24 13.354 24 16.6665C24 19.979 21.3125 22.6665 18 22.6665C14.6875 22.6665 12 19.979 12 16.6665ZM18.6292 13.9998C18.6292 13.6332 18.3667 13.3332 17.9625 13.3332C17.6333 13.3332 17.2958 13.6332 17.2958 13.9998V16.6665C17.2958 17.0332 17.6333 17.3332 17.9625 17.3332H20C20.3667 17.3332 20.6667 17.0332 20.6667 16.6665C20.6667 16.2998 20.3667 15.9998 20 15.9998H18.6292V13.9998Z" fill="#C9C5D0"/>
<path opacity="0.4" d="M0 2.66659C0 1.93034 0.597083 1.33325 1.33333 1.33325H14.6667C15.4042 1.33325 16 1.93034 16 2.66659C16 3.40284 15.4042 3.99992 14.6667 3.99992V4.45742C14.6667 6.22492 13.9625 7.92075 12.7125 9.17075L9.8875 11.9999L11.3833 13.4624C10.925 14.4208 10.6667 15.5333 10.6667 16.6666C10.6667 19.1458 11.9 21.3374 13.7833 22.6666H1.33333C0.597083 22.6666 0 22.0708 0 21.3333C0 20.5958 0.597083 19.9999 1.33333 19.9999V19.5416C1.33333 17.7749 2.03583 16.0791 3.28583 14.8291L6.1125 11.9999L3.28583 9.17075C2.03583 7.92075 1.33333 6.22492 1.33333 4.45742V3.99992C0.597083 3.99992 0 3.40284 0 2.66659ZM4 3.99992V4.45742C4 5.24909 4.23333 6.01659 4.62917 6.66659H11.3333C11.7667 6.01659 12 5.24909 12 4.45742V3.99992H4Z" fill="#C9C5D0"/>
</svg>

<svg width="24" height="24" viewBox="0 0 24 24" fill="none" xmlns="http://www.w3.org/2000/svg"><path d="M12 16.666c0-3.312 2.688-6 6-6 3.313 0 6 2.688 6 6a6 6 0 01-12 0zM18.63 14a.646.646 0 00-.668-.667c-.329 0-.666.3-.666.667v2.666c0 .367.337.667.666.667H20c.367 0 .667-.3.667-.666 0-.367-.3-.667-.667-.667h-1.37v-2z" fill="#C9C5D0"/><path opacity=".4" d="M0 2.667c0-.737.597-1.334 1.333-1.334h13.334a1.333 1.333 0 110 2.667v.457a6.668 6.668 0 01-1.954 4.714L9.887 12l1.495 1.462a7.492 7.492 0 00-.716 3.205 7.335 7.335 0 003.116 6H1.333a1.333 1.333 0 110-2.667v-.458c0-1.767.703-3.463 1.953-4.713L6.112 12 3.286 9.172a6.667 6.667 0 01-1.953-4.714V4A1.333 1.333 0 010 2.667zM4 4v.457c0 .792.233 1.56.63 2.21h6.703A3.98 3.98 0 0012 4.457V4H4z" fill="#C9C5D0"/></svg>
